X: 1508
T: Polonäs ur A Westerlunds notbok nr 132
M: 3/4
L: 1/16
O: Småland
B: A Westerlunds notbok nr 132
B: [[http://www.smus.se/earkiv/fmk/browselarge.php?lang=sw&katalogid=M+137&bildnr=00055|SMUS - katalog M137 bild 55]] nr 132
R: Polonäs
Z: Nils L
K: D
G2BG F2AF E2G2 | FDFA dcdA GFED | G2BG F2AF E2G2 | FDFA d2d2 d4 ::
f2d2 d2f2 fagf | e2e2 efed dcBA | f2d2 d2f2 fagf | e2e2 efed dcBA |
B2G2 G2B2 BdcB | A2A2 ABAG GFED | B2G2 G2B2 BdcB | A2A2 ABAG GFED |
[G2G,2]B[GG,] [F2B,2]A[FB,] [E2A,2]g2 | fedc d4 d4 :|
(:musicend:)
(:music:)
